img/advantages__icon--02.svg

<svg width="76" height="76" viewBox="0 0 76 76" fill="none" xmlns="http://www.w3.org/2000/svg">
<g filter="url(#filter0_d)">
<path d="M43.9513 34.956H44.0022C44.5302 34.956 44.9583 34.5279 44.9583 33.9999C44.9583 33.4719 44.5302 33.0437 44.0022 33.0437H43.9513C43.4233 33.0437 42.9951 33.4719 42.9951 33.9999C42.9951 34.5279 43.4234 34.956 43.9513 34.956Z" fill="url(#paint0_linear)"/>
<g filter="url(#filter1_d)">
<path d="M61.998 33.964C62.0084 33.7066 61.9164 33.4458 61.7198 33.2492L57.3959 28.9253C57.0224 28.552 56.4171 28.552 56.0436 28.9253C55.6702 29.2987 55.6702 29.9042 56.0436 30.2776L58.8098 33.0438H52.6588C52.1848 25.7035 46.2963 19.815 38.956 19.341V13.1902L41.722 15.9562C41.9088 16.1428 42.1534 16.2363 42.3981 16.2363C42.6428 16.2363 42.8875 16.1428 43.0742 15.9562C43.4476 15.5828 43.4476 14.9774 43.0742 14.6039L38.7504 10.2801C38.5542 10.0839 38.2939 9.99187 38.0368 10.0019C38.0245 10.0014 38.0124 10 37.9999 10C37.9875 10 37.9753 10.0014 37.9629 10.0019C37.7059 9.99187 37.4456 10.0839 37.2493 10.2801L32.9254 14.604C32.552 14.9774 32.552 15.5828 32.9254 15.9563C33.1122 16.1429 33.3569 16.2363 33.6015 16.2363C33.8462 16.2363 34.091 16.1429 34.2776 15.9563L37.0438 13.1901V19.3409C29.7035 19.815 23.8149 25.7035 23.341 33.0438H17.2153L19.9815 30.2775C20.3549 29.9042 20.3549 29.2987 19.9815 28.9252C19.6081 28.552 19.0027 28.5519 18.6293 28.9252L14.2801 33.2746C14.0869 33.4677 13.9945 33.7229 14.0011 33.976C14.0011 33.9841 14 33.9919 14 33.9999C14 34.0122 14.0013 34.024 14.0018 34.0362C13.9916 34.2935 14.0836 34.5541 14.28 34.7506L18.6039 39.0745C18.7906 39.2612 19.0353 39.3546 19.28 39.3546C19.5247 39.3546 19.7694 39.2612 19.9561 39.0745C20.3295 38.7011 20.3295 38.0957 19.9561 37.7222L17.19 34.9561H23.3408C23.8148 42.2963 29.7033 48.1848 37.0436 48.6588V52.2111C37.0436 52.7391 37.4716 53.1673 37.9997 53.1673C38.5277 53.1673 38.9559 52.7391 38.9559 52.2111V48.6588C46.2962 48.1848 52.1847 42.2963 52.6586 34.9561H58.8095L56.0434 37.7222C55.67 38.0956 55.67 38.701 56.0434 39.0745C56.2301 39.2612 56.4748 39.3546 56.7195 39.3546C56.9642 39.3546 57.2089 39.2612 57.3956 39.0745L61.7195 34.7506C61.916 34.5541 62.0081 34.2934 61.9978 34.036C61.9984 34.0238 61.9998 34.0121 61.9998 33.9999C61.9998 33.9878 61.9985 33.976 61.998 33.964ZM37.0438 21.2571V24.4436C32.51 24.8937 28.8937 28.51 28.4435 33.0439H25.2569C25.7243 26.7583 30.7583 21.7243 37.0438 21.2571ZM37.0439 46.7428C30.7583 46.2756 25.7243 41.2416 25.2571 34.9561H28.4436C28.8937 39.4899 32.51 43.1061 37.0439 43.5564V46.7428ZM37.9999 38.9955C37.4718 38.9955 37.0438 39.4236 37.0438 39.9516V41.6299C33.5661 41.1965 30.8034 38.4337 30.3699 34.956H32.0481C32.5762 34.956 33.0043 34.5278 33.0043 33.9998C33.0043 33.4718 32.5762 33.0437 32.0481 33.0437H30.3699C30.8033 29.566 33.566 26.8033 37.0438 26.3698V28.048C37.0438 28.576 37.4718 29.0042 37.9999 29.0042C38.5279 29.0042 38.9561 28.576 38.9561 28.048V26.3698C42.7473 26.8423 45.6915 30.0826 45.6915 33.9998C45.6915 37.9171 42.7473 41.1574 38.9561 41.63V39.9517C38.956 39.4236 38.5279 38.9955 37.9999 38.9955ZM49.2929 34.956H50.7427C50.2756 41.2416 45.2416 46.2756 38.9561 46.7427V43.5563C43.8045 43.0749 47.6038 38.9729 47.6038 33.9998C47.6038 29.0268 43.8044 24.925 38.956 24.4435V21.257C45.2415 21.7242 50.2755 26.7582 50.7426 33.0437H49.2928C48.7648 33.0437 48.3366 33.4718 48.3366 33.9998C48.3367 34.5278 48.7648 34.956 49.2929 34.956Z" fill="url(#paint1_linear)"/>
</g>
<path d="M41.7223 52.0436L38.0001 55.7659L34.2779 52.0436C33.9045 51.6703 33.299 51.6703 32.9255 52.0436C32.5522 52.417 32.5522 53.0225 32.9255 53.396L37.2495 57.7199C37.4362 57.9065 37.6809 57.9999 37.9256 57.9999C37.9504 57.9999 37.9753 57.9983 38 57.9964C38.0248 57.9983 38.0497 57.9999 38.0745 57.9999C38.3193 57.9999 38.5639 57.9065 38.7506 57.7199L43.0746 53.396C43.4479 53.0226 43.4479 52.4171 43.0746 52.0436C42.7012 51.6703 42.0959 51.6703 41.7223 52.0436Z" fill="url(#paint2_linear)"/>
</g>
<defs>
<filter id="filter0_d" x="0" y="0" width="75.9998" height="75.9999" filterUnits="userSpaceOnUse" color-interpolation-filters="sRGB">
<feFlood flood-opacity="0" result="BackgroundImageFix"/>
<feColorMatrix in="SourceAlpha" type="matrix" values="0 0 0 0 0 0 0 0 0 0 0 0 0 0 0 0 0 0 127 0"/>
<feOffset dy="4"/>
<feGaussianBlur stdDeviation="7"/>
<feColorMatrix type="matrix" values="0 0 0 0 0.996078 0 0 0 0 0.823529 0 0 0 0 0.188235 0 0 0 0.4 0"/>
<feBlend mode="normal" in2="BackgroundImageFix" result="effect1_dropShadow"/>
<feBlend mode="normal" in="SourceGraphic" in2="effect1_dropShadow" result="shape"/>
</filter>
<filter id="filter1_d" x="0" y="0" width="75.9998" height="71.1673" filterUnits="userSpaceOnUse" color-interpolation-filters="sRGB">
<feFlood flood-opacity="0" result="BackgroundImageFix"/>
<feColorMatrix in="SourceAlpha" type="matrix" values="0 0 0 0 0 0 0 0 0 0 0 0 0 0 0 0 0 0 127 0"/>
<feOffset dy="4"/>
<feGaussianBlur stdDeviation="7"/>
<feColorMatrix type="matrix" values="0 0 0 0 0.996078 0 0 0 0 0.823529 0 0 0 0 0.188235 0 0 0 0.4 0"/>
<feBlend mode="normal" in2="BackgroundImageFix" result="effect1_dropShadow"/>
<feBlend mode="normal" in="SourceGraphic" in2="effect1_dropShadow" result="shape"/>
</filter>
<linearGradient id="paint0_linear" x1="44.9583" y1="32.6547" x2="42.5119" y2="34.1819" gradientUnits="userSpaceOnUse">
<stop stop-color="#FED230"/>
<stop offset="1" stop-color="#FE8730"/>
</linearGradient>
<linearGradient id="paint1_linear" x1="61.9998" y1="1.22022" x2="4.95534" y2="39.7904" gradientUnits="userSpaceOnUse">
<stop stop-color="#FED230"/>
<stop offset="1" stop-color="#FE8730"/>
</linearGradient>
<linearGradient id="paint2_linear" x1="43.3546" y1="50.4953" x2="34.4827" y2="59.7593" gradientUnits="userSpaceOnUse">
<stop stop-color="#FED230"/>
<stop offset="1" stop-color="#FE8730"/>
</linearGradient>
</defs>
</svg>

<svg width="76" height="76" fill="none" xmlns="http://www.w3.org/2000/svg"><g filter="url(#filter0_d)"><path d="M43.951 34.956h.051a.956.956 0 000-1.912h-.05a.956.956 0 000 1.912z" fill="url(#paint0_linear)"/><g filter="url(#filter1_d)"><path d="M61.998 33.964a.952.952 0 00-.278-.715l-4.324-4.324a.956.956 0 00-1.352 1.353l2.766 2.766h-6.151c-.474-7.34-6.363-13.229-13.703-13.703v-6.15l2.766 2.765a.954.954 0 001.352 0 .956.956 0 000-1.352L38.75 10.28a.953.953 0 00-.713-.278L38 10l-.037.002a.953.953 0 00-.714.278l-4.324 4.324a.956.956 0 001.353 1.352l2.766-2.766v6.15c-7.34.475-13.23 6.363-13.703 13.704h-6.126l2.767-2.766a.956.956 0 00-1.353-1.353l-4.349 4.35a.953.953 0 00-.279.701L14 34l.002.036a.953.953 0 00.278.715l4.324 4.324a.953.953 0 001.352 0 .956.956 0 000-1.353l-2.766-2.766h6.15c.475 7.34 6.363 13.229 13.704 13.703v3.552a.956.956 0 101.912 0V48.66c7.34-.474 13.229-6.363 13.703-13.703h6.15l-2.766 2.766a.956.956 0 001.353 1.352l4.323-4.323a.953.953 0 00.279-.715L62 34l-.002-.036zM37.044 21.257v3.187c-4.534.45-8.15 4.066-8.6 8.6h-3.187c.467-6.286 5.501-11.32 11.787-11.787zm0 25.486c-6.286-.467-11.32-5.501-11.787-11.787h3.187c.45 4.534 4.066 8.15 8.6 8.6v3.187zM38 38.995a.956.956 0 00-.956.957v1.678a7.704 7.704 0 01-6.674-6.674h1.678a.956.956 0 000-1.912H30.37a7.704 7.704 0 016.674-6.674v1.678a.956.956 0 101.912 0V26.37c3.791.472 6.735 3.713 6.735 7.63s-2.944 7.157-6.735 7.63v-1.678a.956.956 0 00-.956-.956zm11.293-4.039h1.45c-.467 6.286-5.501 11.32-11.787 11.787v-3.187c4.848-.481 8.648-4.583 8.648-9.556 0-4.973-3.8-9.075-8.648-9.556v-3.187c6.285.467 11.32 5.501 11.787 11.787h-1.45a.956.956 0 100 1.912z" fill="url(#paint1_linear)"/></g><path d="M41.722 52.044L38 55.766l-3.722-3.722a.957.957 0 00-1.352 1.352l4.323 4.324a.954.954 0 00.751.276c.025.002.05.004.075.004a.953.953 0 00.676-.28l4.324-4.324a.957.957 0 00-1.353-1.352z" fill="url(#paint2_linear)"/></g><defs><linearGradient id="paint0_linear" x1="44.958" y1="32.655" x2="42.512" y2="34.182" gradientUnits="userSpaceOnUse"><stop stop-color="#FED230"/><stop offset="1" stop-color="#FE8730"/></linearGradient><linearGradient id="paint1_linear" x1="62" y1="1.22" x2="4.955" y2="39.79" gradientUnits="userSpaceOnUse"><stop stop-color="#FED230"/><stop offset="1" stop-color="#FE8730"/></linearGradient><linearGradient id="paint2_linear" x1="43.355" y1="50.495" x2="34.483" y2="59.759" gradientUnits="userSpaceOnUse"><stop stop-color="#FED230"/><stop offset="1" stop-color="#FE8730"/></linearGradient><filter id="filter0_d" x="0" y="0" width="76" height="76" filterUnits="userSpaceOnUse" color-interpolation-filters="sRGB"><feFlood flood-opacity="0" result="BackgroundImageFix"/><feColorMatrix in="SourceAlpha" values="0 0 0 0 0 0 0 0 0 0 0 0 0 0 0 0 0 0 127 0"/><feOffset dy="4"/><feGaussianBlur stdDeviation="7"/><feColorMatrix values="0 0 0 0 0.996078 0 0 0 0 0.823529 0 0 0 0 0.188235 0 0 0 0.4 0"/><feBlend in2="BackgroundImageFix" result="effect1_dropShadow"/><feBlend in="SourceGraphic" in2="effect1_dropShadow" result="shape"/></filter><filter id="filter1_d" x="0" y="0" width="76" height="71.167" filterUnits="userSpaceOnUse" color-interpolation-filters="sRGB"><feFlood flood-opacity="0" result="BackgroundImageFix"/><feColorMatrix in="SourceAlpha" values="0 0 0 0 0 0 0 0 0 0 0 0 0 0 0 0 0 0 127 0"/><feOffset dy="4"/><feGaussianBlur stdDeviation="7"/><feColorMatrix values="0 0 0 0 0.996078 0 0 0 0 0.823529 0 0 0 0 0.188235 0 0 0 0.4 0"/><feBlend in2="BackgroundImageFix" result="effect1_dropShadow"/><feBlend in="SourceGraphic" in2="effect1_dropShadow" result="shape"/></filter></defs></svg>
